app/assets/images/Contenido/Odin/Libros.svg

<svg fill="none" height="130" viewBox="0 0 117 130" width="117" xmlns="http://www.w3.org/2000/svg"><circle cx="57.8345" cy="45.4964" r="44.3397" stroke="#000" stroke-width="2.31337"/><g fill="#000"><path d="m28.9109 124.873v-14.218h2.6405v11.984h7.4341v2.234zm13.1951-12.634c-.9344 0-1.6249-.67-1.6249-1.523s.6905-1.524 1.6249-1.524c.9343 0 1.6249.63 1.6249 1.463 0 .894-.6703 1.584-1.6249 1.584zm-1.2796 12.634v-10.846h2.5389v10.846zm11.8835-10.968c3.1686 0 5.5044 2.173 5.5044 5.545s-2.3358 5.565-5.5044 5.565c-1.4827 0-2.7421-.508-3.5952-1.544v1.402h-2.417v-15.071h2.5389v5.545c.8734-.975 2.0921-1.442 3.4733-1.442zm-.2844 8.937c1.8281 0 3.2093-1.32 3.2093-3.392s-1.3812-3.392-3.2093-3.392c-1.828 0-3.2295 1.32-3.2295 3.392s1.4015 3.392 3.2295 3.392zm10.6138-7.231c.7312-1.138 2.0515-1.706 3.8592-1.706v2.417c-.2234-.041-.4062-.061-.589-.061-1.9296 0-3.1483 1.137-3.1483 3.351v5.261h-2.539v-10.846h2.4171zm10.7886 9.404c-3.3311 0-5.7685-2.315-5.7685-5.565s2.4374-5.545 5.7685-5.545c3.3717 0 5.7888 2.295 5.7888 5.545s-2.4171 5.565-5.7888 5.565zm0-2.173c1.8484 0 3.2296-1.32 3.2296-3.392s-1.3812-3.392-3.2296-3.392c-1.828 0-3.2092 1.32-3.2092 3.392s1.3812 3.392 3.2092 3.392zm11.5681 2.173c-1.8077 0-3.6155-.528-4.5904-1.219l.9749-1.929c.9547.63 2.4171 1.076 3.778 1.076 1.6046 0 2.2749-.446 2.2749-1.198 0-2.072-6.7028-.122-6.7028-4.448 0-2.052 1.8483-3.392 4.7732-3.392 1.4421 0 3.0873.345 4.0623.934l-.975 1.93c-1.0358-.61-2.0717-.813-3.1076-.813-1.5437 0-2.2749.508-2.2749 1.219 0 2.194 6.7028.244 6.7028 4.489 0 2.031-1.8687 3.351-4.9154 3.351z"/><path d="m58.064 49.3101c-.473 0-.8565.3833-.8565.8565v10.278c0 .4731.3835.8565.8565.8565s.8565-.3834.8565-.8565v-10.278c0-.4732-.3835-.8565-.8565-.8565z"/><path d="m86.2715 51.023c.473 0 .8565-.3834.8565-.8565v-25.921c0-1.486-1.6741-2.4754-2.9784-1.7419l-.5819.3273-2.7479-2.7922c-.2087-.2118-.5123-.3003-.8018-.2341-.1118.0256-1.9541.4551-4.6228 1.473v-3.4212c0-.283-.1397-.5478-.3734-.7073-.2336-.1594-.5311-.1932-.7946-.0906-8.0065 3.1273-12.2014 8.0556-14.3105 11.6392-.8562 1.4548-1.4471 2.8049-1.8527 3.9342-.4057-1.1293-.9965-2.4794-1.8527-3.9342-2.1092-3.5836-6.3041-8.5119-14.3105-11.6392-.2635-.1026-.561-.0689-.7947.0906-.2336.1595-.3734.4244-.3734.7073v3.4207c-2.6628-1.0153-4.5044-1.4453-4.6228-1.4724-.29-.0662-.5933.0222-.8018.2341l-2.7479 2.7922-.582-.3274c-1.2951-.7282-2.9782.2455-2.9782 1.7419v35.9964c0 .721.3903 1.3882 1.0187 1.7419l22.0787 12.4193c.481.2154 1.0846.3267 1.5923.161.3573.545.9726.9063 1.6715.9063h5.4054c.6989 0 1.3143-.3613 1.6716-.9063.542.1723 1.0727.1187 1.5923-.161l22.0788-12.4194c.6282-.3536 1.0185-1.0208 1.0185-1.7418v-4.5939c0-1.1074-1.713-1.1074-1.713 0v4.5939c0 .103-.0558.1984-.1454.2489l-22.0789 12.4192c-.2369.0799-.3788-.0032-.4255-.2488v-35.5222c-.0315-.1709-.0377-.6198.1455-.7229l22.0787-12.4193c.2371-.0797.3789.0032.4256.2488v25.921c.0002.4729.3835.8564.8567.8564zm-12.5893-31.8873v2.8331c-.8091.3447-1.6659.7357-2.5527 1.1774-3.1277 1.5579-7.0396 3.9765-10.3053 7.4478.1739-.3346.3627-.6776.5687-1.0274 1.8677-3.1732 5.4968-7.4789 12.2893-10.4309zm-12.6301 23.795h-5.9764v-2.0936h5.9764zm-5.9764 1.713h5.9764v21.3233h-5.9764zm0 23.0363h5.9764v2.0938h-5.9764zm5.9764-28.5559h-5.9764v-1.9853c0-.1574.1281-.2855.2855-.2855h5.4054c.1574 0 .2855.1281.2855.2855zm-24.8679-17.5335c1.2455.3324 4.8771 1.4033 8.9341 3.5418.9453.4981 1.7762-1.0002.7988-1.5154-1.2142-.64-2.3855-1.1857-3.4715-1.6484v-2.8329c6.7539 2.935 10.3758 7.2077 12.2452 10.3563.2185.3679.4177.7287.6009 1.0808-1.3449-1.4309-2.885-2.7757-4.6166-4.0231-.8983-.6475-1.8998.7426-1.0013 1.3899 2.9574 2.1305 5.3225 4.5482 7.051 7.201-.9942-.0815-1.8445.2457-2.668-.2175l-19.9495-11.2219zm17.0371 51.3172c-.0947.0016-.1893.0024-.2841.0024l-22.0787-12.4193c-.0898-.0505-.1456-.1459-.1456-.249v-35.9964c0-.2282.2521-.3461.4255-.2488l22.0787 12.4191c.1833.1034.1771.552.1456.723v35.5224c0 .1425-.0886.2156-.1414.2466zm7.8308.5641c0 .1575-.1281.2855-.2855.2855h-5.4054c-.1574 0-.2855-.128-.2855-.2855v-1.9851h5.9764zm1.0187-38.549c-.8386.4718-1.6537.1475-2.6666.2174 3.354-5.1376 8.5438-8.4909 12.4506-10.4416 3.6991-1.8471 6.9289-2.7978 8.0889-3.108l2.0769 2.1104z"/><path d="m81.6596 31.9566-15.9888 9.136c-.2667.1525-.4315.4363-.4315.7437v5.5217c0 .6463.7203 1.0645 1.2814.7437l15.9886-9.1361c.2669-.1524.4316-.4362.4316-.7436v-5.5217c0-.5999-.6901-1.0818-1.2813-.7437zm-.4317 5.7683-14.2756 8.1571v-3.5487l14.2756-8.1572z"/></g></svg>

<svg width="117" height="130" viewBox="0 0 117 130" fill="none" xmlns="http://www.w3.org/2000/svg">
<circle cx="57.8345" cy="45.4964" r="44.3397" stroke="black" stroke-width="2.31337"/>
<path d="M28.9109 124.873V110.655H31.5514V122.639H38.9855V124.873H28.9109ZM42.106 112.239C41.1716 112.239 40.4811 111.569 40.4811 110.716C40.4811 109.863 41.1716 109.192 42.106 109.192C43.0403 109.192 43.7309 109.822 43.7309 110.655C43.7309 111.549 43.0606 112.239 42.106 112.239ZM40.8264 124.873V114.027H43.3653V124.873H40.8264ZM52.7099 113.905C55.8785 113.905 58.2143 116.078 58.2143 119.45C58.2143 122.822 55.8785 125.015 52.7099 125.015C51.2272 125.015 49.9678 124.507 49.1147 123.471V124.873H46.6977V109.802H49.2366V115.347C50.11 114.372 51.3287 113.905 52.7099 113.905ZM52.4255 122.842C54.2536 122.842 55.6348 121.522 55.6348 119.45C55.6348 117.378 54.2536 116.058 52.4255 116.058C50.5975 116.058 49.196 117.378 49.196 119.45C49.196 121.522 50.5975 122.842 52.4255 122.842ZM63.0393 115.611C63.7705 114.473 65.0908 113.905 66.8985 113.905V116.322C66.6751 116.281 66.4923 116.261 66.3095 116.261C64.3799 116.261 63.1612 117.398 63.1612 119.612V124.873H60.6222V114.027H63.0393V115.611ZM73.8279 125.015C70.4968 125.015 68.0594 122.7 68.0594 119.45C68.0594 116.2 70.4968 113.905 73.8279 113.905C77.1996 113.905 79.6167 116.2 79.6167 119.45C79.6167 122.7 77.1996 125.015 73.8279 125.015ZM73.8279 122.842C75.6763 122.842 77.0575 121.522 77.0575 119.45C77.0575 117.378 75.6763 116.058 73.8279 116.058C71.9999 116.058 70.6187 117.378 70.6187 119.45C70.6187 121.522 71.9999 122.842 73.8279 122.842ZM85.396 125.015C83.5883 125.015 81.7805 124.487 80.8056 123.796L81.7805 121.867C82.7352 122.497 84.1976 122.943 85.5585 122.943C87.1631 122.943 87.8334 122.497 87.8334 121.745C87.8334 119.673 81.1306 121.623 81.1306 117.297C81.1306 115.245 82.9789 113.905 85.9038 113.905C87.3459 113.905 88.9911 114.25 89.9661 114.839L88.9911 116.769C87.9553 116.159 86.9194 115.956 85.8835 115.956C84.3398 115.956 83.6086 116.464 83.6086 117.175C83.6086 119.369 90.3114 117.419 90.3114 121.664C90.3114 123.695 88.4427 125.015 85.396 125.015Z" fill="black"/>
<path d="M58.064 49.3101C57.591 49.3101 57.2075 49.6934 57.2075 50.1666V60.4446C57.2075 60.9177 57.591 61.3011 58.064 61.3011C58.537 61.3011 58.9205 60.9177 58.9205 60.4446V50.1666C58.9205 49.6934 58.537 49.3101 58.064 49.3101Z" fill="black"/>
<path d="M86.2715 51.023C86.7445 51.023 87.128 50.6396 87.128 50.1665V24.2455C87.128 22.7595 85.4539 21.7701 84.1496 22.5036L83.5677 22.8309L80.8198 20.0387C80.6111 19.8269 80.3075 19.7384 80.018 19.8046C79.9062 19.8302 78.0639 20.2597 75.3952 21.2776V17.8564C75.3952 17.5734 75.2555 17.3086 75.0218 17.1491C74.7882 16.9897 74.4907 16.9559 74.2272 17.0585C66.2207 20.1858 62.0258 25.1141 59.9167 28.6977C59.0605 30.1525 58.4696 31.5026 58.064 32.6319C57.6583 31.5026 57.0675 30.1525 56.2113 28.6977C54.1021 25.1141 49.9072 20.1858 41.9008 17.0585C41.6373 16.9559 41.3398 16.9896 41.1061 17.1491C40.8725 17.3086 40.7327 17.5735 40.7327 17.8564V21.2771C38.0699 20.2618 36.2283 19.8318 36.1099 19.8047C35.8199 19.7385 35.5166 19.8269 35.3081 20.0388L32.5602 22.831L31.9782 22.5036C30.6831 21.7754 29 22.7491 29 24.2455V60.2419C29 60.9629 29.3903 61.6301 30.0187 61.9838L52.0974 74.4031C52.5784 74.6185 53.182 74.7298 53.6897 74.5641C54.047 75.1091 54.6623 75.4704 55.3612 75.4704H60.7666C61.4655 75.4704 62.0809 75.1091 62.4382 74.5641C62.9802 74.7364 63.5109 74.6828 64.0305 74.4031L86.1093 61.9837C86.7375 61.6301 87.1278 60.9629 87.1278 60.2419V55.648C87.1278 54.5406 85.4148 54.5406 85.4148 55.648V60.2419C85.4148 60.3449 85.359 60.4403 85.2694 60.4908L63.1905 72.91C62.9536 72.9899 62.8117 72.9068 62.765 72.6612V37.139C62.7335 36.9681 62.7273 36.5192 62.9105 36.4161L84.9892 23.9968C85.2263 23.9171 85.3681 24 85.4148 24.2456V50.1666C85.415 50.6395 85.7983 51.023 86.2715 51.023ZM73.6822 19.1357V21.9688C72.8731 22.3135 72.0163 22.7045 71.1295 23.1462C68.0018 24.7041 64.0899 27.1227 60.8242 30.594C60.9981 30.2594 61.1869 29.9164 61.3929 29.5666C63.2606 26.3934 66.8897 22.0877 73.6822 19.1357ZM61.0521 42.9307H55.0757V40.8371H61.0521V42.9307ZM55.0757 44.6437H61.0521V65.967H55.0757V44.6437ZM55.0757 67.68H61.0521V69.7738H55.0757V67.68ZM61.0521 39.1241H55.0757V37.1388C55.0757 36.9814 55.2038 36.8533 55.3612 36.8533H60.7666C60.924 36.8533 61.0521 36.9814 61.0521 37.1388V39.1241ZM36.1842 21.5906C37.4297 21.923 41.0613 22.9939 45.1183 25.1324C46.0636 25.6305 46.8945 24.1322 45.9171 23.617C44.7029 22.977 43.5316 22.4313 42.4456 21.9686V19.1357C49.1995 22.0707 52.8214 26.3434 54.6908 29.492C54.9093 29.8599 55.1085 30.2207 55.2917 30.5728C53.9468 29.1419 52.4067 27.7971 50.6751 26.5497C49.7768 25.9022 48.7753 27.2923 49.6738 27.9396C52.6312 30.0701 54.9963 32.4878 56.7248 35.1406C55.7306 35.0591 54.8803 35.3863 54.0568 34.9231L34.1073 23.7012L36.1842 21.5906ZM53.2213 72.9078C53.1266 72.9094 53.032 72.9102 52.9372 72.9102L30.8585 60.4909C30.7687 60.4404 30.7129 60.345 30.7129 60.2419V24.2455C30.7129 24.0173 30.965 23.8994 31.1384 23.9967L53.2171 36.4158C53.4004 36.5192 53.3942 36.9678 53.3627 37.1388V72.6612C53.3627 72.8037 53.2741 72.8768 53.2213 72.9078ZM61.0521 73.4719C61.0521 73.6294 60.924 73.7574 60.7666 73.7574H55.3612C55.2038 73.7574 55.0757 73.6294 55.0757 73.4719V71.4868H61.0521V73.4719ZM62.0708 34.9229C61.2322 35.3947 60.4171 35.0704 59.4042 35.1403C62.7582 30.0027 67.948 26.6494 71.8548 24.6987C75.5539 22.8516 78.7837 21.9009 79.9437 21.5907L82.0206 23.7011L62.0708 34.9229Z" fill="black"/>
<path d="M81.6596 31.9566L65.6708 41.0926C65.4041 41.2451 65.2393 41.5289 65.2393 41.8363V47.358C65.2393 48.0043 65.9596 48.4225 66.5207 48.1017L82.5093 38.9656C82.7762 38.8132 82.9409 38.5294 82.9409 38.222V32.7003C82.9409 32.1004 82.2508 31.6185 81.6596 31.9566ZM81.2279 37.7249L66.9523 45.882V42.3333L81.2279 34.1761V37.7249Z" fill="black"/>
</svg>
